X: 1
T: Carol Palmer's Strathspey
T: 8x32S 3C (Muriel, Zobel, R. Wallace, Gary Thomas, Elaine Brunken)
T: 1,2 set, turn; 1,2 set, R4; R&L; set, Knot
P: Carol Palmer of Houston
R: strathspey
C: by Muriel Johnstone
C: arr. T. Traub 8-23-2015
M: 4/4
L: 1/8
K: A
R: strathspey
|: E|"A"A,2 C<E A,>E C<E|"A"A,>CE>G A>GA>B|"A"c>e d/c/B/A/ "D"F<AA>F|"A"E>C "D"D/C/B,/A,/ "E"B,2 B, :|
f|"A"e>A d/c/B/A/ "D"d<FF>A|"A"E>AC>A EAcf|"A"e>A d/c/B/A/ "D"d<FF>A|"A"E>F "D"F/E/D/C/ "E"B,2 B,f|
"A"e>A d/c/B/A/ "D"d<FF>A|"A"E>AC>A EAcf|"A"ef/g/ a>g "D"f/e/d/c/ d/c/B/A/|"Bm"B>c d/c/B/A/ "D"F2 F<A |]
